blockchains/ethereum/assets/0x3506424F91fD33084466F402d5D97f05F8e3b4AF/logo.svg

<svg fill="none" height="250" viewBox="0 0 250 250" width="250" xmlns="http://www.w3.org/2000/svg" xmlns:xlink="http://www.w3.org/1999/xlink"><clipPath id="a"><path d="m0 0h250v250h-250z"/></clipPath><g clip-path="url(#a)" fill="#cd0124"><path d="m148.333 130.832c0-1.666 0-2.5-1.666-3.333-5.834-4.167-12.5-8.333-18.334-12.5-.616-.412-1.341-.632-2.083-.632s-1.467.22-2.083.632l-18.334 13.333c-.765.391-1.405.989-1.847 1.725-.442.737-.668 1.583-.653 2.442-.039 1.797-.62 3.539-1.666 5-.412.617-.632 1.342-.632 2.083 0 .742.22 1.467.632 2.084 6.666 13.333 12.5 26.666 19.166 40 2.5 4.166 4.167 9.166 6.667 14.166.833-.833.833-1.666 1.667-2.5 7.5-16.666 14.166-33.333 21.666-50 .834-1.666.834-2.5-.833-3.333-.937-1.31-1.572-2.812-1.86-4.396-.289-1.585-.222-3.214.193-4.771z"/><path d="m120 109.167c-16.667-11.667-33.3333-23.3337-49.1667-34.167l-.8333.8333c.8333 1.6667.8333 2.5 1.6667 4.1667l17.5 37.5c1.6666 3.333 2.5 6.667 7.5 7.5 1.4402.13 2.8871-.16 4.1663-.833 5-4.167 10.834-7.5 15.834-11.667z"/><path d="m125 0c-24.723 0-48.8901 7.33112-69.4462 21.0663-20.5562 13.7352-36.5777 33.2575-46.03869 56.0983-9.4609492 22.8404-11.93637 47.9744-7.11321 72.2214 4.82315 24.248 16.7282 46.521 34.2098 64.002 17.4816 17.482 39.7544 29.387 64.0023 34.21 24.247 4.823 49.381 2.348 72.221-7.113 22.841-9.461 42.364-25.483 56.099-46.039s21.066-44.723 21.066-69.446c0-33.1521-13.17-64.9463-36.612-88.3883-23.442-23.4421-55.236-36.6117-88.388-36.6117zm67.5 72.5c-1.667 0-2.5.8333-3.333 2.5-6.667 16.6667-14.167 33.333-20.834 50v3.333c.666 1.409 1.02 2.945 1.038 4.503s-.3 3.102-.933 4.525c-.633 1.424-1.565 2.695-2.734 3.725-1.168 1.031-2.546 1.797-4.037 2.247-.834 0-1.667.834-2.5 2.5-7.5 16.667-15 34.167-21.667 50.834-.412.616-.632 1.341-.632 2.083s.22 1.467.632 2.083c1.557 2.138 2.251 4.784 1.942 7.41s-1.598 5.039-3.609 6.757c-1.747 1.726-4.059 2.761-6.51 2.914s-4.875-.586-6.823-2.081c-1.041-.71-1.931-1.619-2.62-2.674s-1.163-2.235-1.395-3.474c-.232-1.238-.218-2.51.042-3.743s.761-2.403 1.473-3.442c.409-.77.622-1.628.622-2.5s-.213-1.73-.622-2.5c-8.333-16.667-15.833-33.333-24.1666-50-.3793-.847-.9552-1.591-1.6799-2.171s-1.5772-.978-2.4868-1.162c-1.698-.283-3.3025-.972-4.6763-2.009-1.3739-1.037-2.4763-2.392-3.2132-3.947-.7369-1.556-1.0864-3.267-1.0185-4.987.0678-1.72.5509-3.398 1.408-4.891.4121-.616.632-1.341.632-2.083s-.2199-1.467-.632-2.083c-7.5-16.667-15-32.5003-23.3333-49.167 0-.8333-.8333-1.6667-3.3333-1.6667-2.4508-.3446-4.7055-1.5306-6.3779-3.355-1.6723-1.8244-2.6582-4.1735-2.7888-6.645.1541-2.315.9329-4.545 2.2535-6.4526 1.3207-1.9077 3.1338-3.4216 5.2465-4.3807 2.2428-.8688 4.7184-.928 7.0002-.1674s4.2268 2.2933 5.4998 4.3341c.8333 1.6666 1.6667 1.6666 4.1667 1.6666h105.8329c1.667 0 3.334 0 4.167-2.5 1.137-1.9629 2.933-3.4589 5.07-4.2219 2.136-.7629 4.474-.7434 6.597.0553 2.07.7837 3.874 2.1401 5.202 3.9108 1.328 1.7706 2.125 3.8826 2.298 6.0892.031 2.6064-.879 5.1367-2.563 7.1265-1.684 1.9899-4.028 3.306-6.604 3.7068z"/><path d="m125 103.331c.617.412 1.342.632 2.083.632.742 0 1.467-.22 2.084-.632 15.833-11.6669 31.666-22.5003 46.666-34.1669.834-.8334 1.667-.8334 1.667-1.6667v-.8333h-105c.9535.3498 1.8103.921 2.5 1.6666z"/><path d="m133.333 109.164c6.667 5 13.334 9.167 20 13.333 1.667.834 4.167 0 6.667 0 .833 0 1.667-1.666 1.667-2.5 5.833-13.333 11.666-27.4996 17.5-40.8329 0-.8334.833-1.6667.833-2.5h-.833c-14.167 10-30 20.8333-45.834 32.4999z"/></g></svg>

<svg width="250" height="250" viewBox="0 0 250 250" fill="none" xmlns="http://www.w3.org/2000/svg">
<g clip-path="url(#clip0_48_13034)">
<path d="M148.333 130.832C148.333 129.166 148.333 128.332 146.667 127.499C140.833 123.332 134.167 119.166 128.333 114.999C127.717 114.587 126.992 114.367 126.25 114.367C125.508 114.367 124.783 114.587 124.167 114.999L105.833 128.332C105.068 128.723 104.428 129.321 103.986 130.057C103.544 130.794 103.318 131.64 103.333 132.499C103.294 134.296 102.713 136.038 101.667 137.499C101.255 138.116 101.035 138.841 101.035 139.582C101.035 140.324 101.255 141.049 101.667 141.666C108.333 154.999 114.167 168.332 120.833 181.666C123.333 185.832 125 190.832 127.5 195.832C128.333 194.999 128.333 194.166 129.167 193.332C136.667 176.666 143.333 159.999 150.833 143.332C151.667 141.666 151.667 140.832 150 139.999C149.063 138.689 148.428 137.187 148.14 135.603C147.851 134.018 147.918 132.389 148.333 130.832Z" fill="#CD0124"/>
<path d="M120 109.167C103.333 97.5 86.6667 85.8333 70.8333 75L70 75.8333C70.8333 77.5 70.8333 78.3333 71.6667 80L89.1667 117.5C90.8333 120.833 91.6667 124.167 96.6667 125C98.1069 125.13 99.5538 124.84 100.833 124.167C105.833 120 111.667 116.667 116.667 112.5L120 109.167Z" fill="#CD0124"/>
<path d="M125 0C100.277 0 76.1099 7.33112 55.5538 21.0663C34.9976 34.8015 18.9761 54.3238 9.51511 77.1646C0.0541608 100.005 -2.42126 125.139 2.4019 149.386C7.22505 173.634 19.1301 195.907 36.6117 213.388C54.0933 230.87 76.3661 242.775 100.614 247.598C124.861 252.421 149.995 249.946 172.835 240.485C195.676 231.024 215.199 215.002 228.934 194.446C242.669 173.89 250 149.723 250 125C250 91.8479 236.83 60.0537 213.388 36.6117C189.946 13.1696 158.152 0 125 0V0ZM192.5 72.5C190.833 72.5 190 73.3333 189.167 75C182.5 91.6667 175 108.333 168.333 125V128.333C168.999 129.742 169.353 131.278 169.371 132.836C169.389 134.394 169.071 135.938 168.438 137.361C167.805 138.785 166.873 140.056 165.704 141.086C164.536 142.117 163.158 142.883 161.667 143.333C160.833 143.333 160 144.167 159.167 145.833C151.667 162.5 144.167 180 137.5 196.667C137.088 197.283 136.868 198.008 136.868 198.75C136.868 199.492 137.088 200.217 137.5 200.833C139.057 202.971 139.751 205.617 139.442 208.243C139.133 210.869 137.844 213.282 135.833 215C134.086 216.726 131.774 217.761 129.323 217.914C126.872 218.067 124.448 217.328 122.5 215.833C121.459 215.123 120.569 214.214 119.88 213.159C119.191 212.104 118.717 210.924 118.485 209.685C118.253 208.447 118.267 207.175 118.527 205.942C118.787 204.709 119.288 203.539 120 202.5C120.409 201.73 120.622 200.872 120.622 200C120.622 199.128 120.409 198.27 120 197.5C111.667 180.833 104.167 164.167 95.8334 147.5C95.4541 146.653 94.8782 145.909 94.1535 145.329C93.4288 144.749 92.5763 144.351 91.6667 144.167C89.9687 143.884 88.3642 143.195 86.9904 142.158C85.6165 141.121 84.5141 139.766 83.7772 138.211C83.0403 136.655 82.6908 134.944 82.7587 133.224C82.8265 131.504 83.3096 129.826 84.1667 128.333C84.5788 127.717 84.7987 126.992 84.7987 126.25C84.7987 125.508 84.5788 124.783 84.1667 124.167C76.6667 107.5 69.1667 91.6667 60.8334 75C60.8334 74.1667 60.0001 73.3333 57.5001 73.3333C55.0493 72.9887 52.7946 71.8027 51.1222 69.9783C49.4499 68.1539 48.464 65.8048 48.3334 63.3333C48.4875 61.0183 49.2663 58.7883 50.5869 56.8807C51.9076 54.973 53.7207 53.4591 55.8334 52.5C58.0762 51.6312 60.5518 51.572 62.8336 52.3326C65.1154 53.0932 67.0604 54.6259 68.3334 56.6667C69.1667 58.3333 70.0001 58.3333 72.5001 58.3333H178.333C180 58.3333 181.667 58.3333 182.5 55.8333C183.637 53.8704 185.433 52.3744 187.57 51.6114C189.706 50.8485 192.044 50.868 194.167 51.6667C196.237 52.4504 198.041 53.8068 199.369 55.5775C200.697 57.3481 201.494 59.4601 201.667 61.6667C201.698 64.2731 200.788 66.8034 199.104 68.7932C197.42 70.7831 195.076 72.0992 192.5 72.5Z" fill="#CD0124"/>
<path d="M125 103.331C125.617 103.743 126.342 103.963 127.083 103.963C127.825 103.963 128.55 103.743 129.167 103.331C145 91.6641 160.833 80.8307 175.833 69.1641C176.667 68.3307 177.5 68.3307 177.5 67.4974V66.6641H72.5C73.4535 67.0139 74.3103 67.5851 75 68.3307L125 103.331Z" fill="#CD0124"/>
<path d="M133.333 109.164C140 114.164 146.667 118.331 153.333 122.497C155 123.331 157.5 122.497 160 122.497C160.833 122.497 161.667 120.831 161.667 119.997C167.5 106.664 173.333 92.4974 179.167 79.1641C179.167 78.3307 180 77.4974 180 76.6641H179.167C165 86.6641 149.167 97.4974 133.333 109.164Z" fill="#CD0124"/>
</g>
<defs>
<clipPath id="clip0_48_13034">
<rect width="250" height="250" fill="white"/>
</clipPath>
</defs>
</svg>
